X: 22390
T: Lad O'Beirne's
R: reel
M: 4/4
K: Fmajor
|:d2cA dAcA|GcAF {A}GFDF|CFF/F/F CFAc|dcde fagf|
d2cA dAcA|GcAF {A}GFDF|CFAF DGBd|1 cbag f3e:|2 cbag f3g||
|:a2gf afgf|dgfd cBAB|cc/c/cd cdfa|gg/g/ga bagf|
[1 afgf afgf|dgfd cBAB|cc/c/cd cdfa|gg/g/ga f2 fg:|
[2 a3 g f3 e|dAfd cAFD|CFAF DGBd|cbag f3e||

